X: 243
T:The Peacock's Feather
C:Trad
R:Reel
M:C
Z: Steven Palm
K:EDor
L:1/8
BA | GEFD E2 EF | GFGB A2 GA | Beed edBA |1 G2 B,C D2 BA :|2 G2 F2 E2 Bc
|
       d3 B e4 | edB^G A2 Bd | d2 Be edBA | G2 B,C D2 BA |
    GEFD E2 EF | GFGB A2 GA | Beed edBA | G2 E2 E2 ||
<end>
<start>
